!!!!SEGMENT: pl-wtm--r-1227--024_lodwigowski-edward-stefan--pojedziemy-na-low.krn
!!!cenid: 18xx:1964
!!!COM: Łodwigowski, Edward Stefan
!!!COM-rismID: pe30111147
!!!CDT: 1815/08/14-1895/11/12
!!!CNT: Polish
!!!OTL: Pojedziemy na łów
!!!PDT:
!!!AGN:
!!!SMS-siglum: PL-Wtm
!!!SMS-shelfmark: R 1227
!!!SMS-shelfwork: 024 W
!!!SMS-variant:
!!!SMS-altvar:
!!!NIFC-rismSourceID: 1001084167
!!!NIFC-rismChildID: 1001084167
!!!NIFC-islandoraID:
!!!URL-pdf-islandora:
!!!URL-scan:
!!!IIIF:
!!!ONB-nifc: UWAGA: No. 95
!!!OMD: No 95. Moderato
!!!AIN: 1 forte
!!!key:
**kern	**fing	**kern	**fing	**dynam
*part1	*	*part1	*	*part1
*staff2	*	*staff1	*	*
*Iforte	*	*Iforte	*	*
*I"Fortepian	*	*I"Fortepian	*	*
*clefF4	*	*clefG2	*	*
*k[f#c#]	*	*k[f#c#]	*	*
*D:	*	*D:	*	*
*M2/4	*	*M2/4	*	*
*>[A,A,B,B]	*>[A,A,B,B]	*>[A,A,B,B]	*>[A,A,B,B]	*>[A,A,B,B]
=1	=1	=1	=1	=1
*all\right	*	*all\right	*	*
*>A	*>A	*>A	*>A	*>A
*	*^	*	*	*
(8F#L 8D\	3	5	(8dd\L	1	f
8A\	.	.	8ee\	.	.
8d\	.	.	8ff# 8dd'\	.	.
8A\J)	.	.	8ggJ 8ee'\	.	.
*	*v	*v	*	*	*
=2	=2	=2	=2	=2
(8F#L 8D\	.	(4aa 4ff#^<\	.	.
8A\	.	.	.	.
8d\J)	.	8ff# 8dd\))	.	.
8r	.	8r	.	.
=3	=3	=3	=3	=3
(8F#L 8D\	.	(4aa 4ff#^<\	.	.
8A\	.	.	.	.
8d\J)	.	8ff# 8dd\)	.	.
8r	.	8r	.	.
=4	=4	=4	=4	=4
8D\L	5	8ff#L 8dd 8a'\	.	.
8F#\	3	8ff#J 8dd 8a'\	.	.
8A\	1	8eeL 8cc# 8a 8g'\	.	.
8AA\J	.	8eeJ 8cc# 8a 8g'\	.	.
=5	=5	=5	=5	=5
4D'\	2	4dd 4a 4f#'\	.	.
4r	.	4r	.	.
!!LO:LB:g=original
=6:|!|:	=6:|!|:	=6:|!|:	=6:|!|:	=6:|!|:
*>B	*>B	*>B	*>B	*>B
*	*below	*	*	*
8D'\L	3	8ff#L 8dd 8a'\	.	.
8A'\	.	8ff# 8dd 8a'\	.	.
8AA'\	.	8ee 8cc# 8a'\	.	.
8A'\J	.	8eeJ 8cc# 8a'\	.	.
=7	=7	=7	=7	=7
8D'\L	3	8ff#L 8dd 8a'\	.	.
8A'\	.	8ff#J 8dd 8a'\	.	.
8C#^\	3	4gg 4ee 4a^\	.	.
8AA\J	.	.	.	.
=8	=8	=8	=8	=8
8D'\L	.	8ff#L 8dd 8a'\	.	.
8A'\	.	8ff# 8dd 8a'\	.	.
8AA'\	.	8ee 8cc# 8a'\	.	.
8A'\J	.	8eeJ 8cc# 8a'\	.	.
=9	=9	=9	=9	=9
8D'\L	.	8ff#L 8dd 8a'\	.	.
8A'\	.	8ff#J 8dd 8a'\	.	.
8C#^\	.	4gg 4ee 4a^\	.	.
8AA\J	.	.	.	.
=10	=10	=10	=10	=10
*	*above	*	*	*
8D'\L	3	8ff#L 8dd 8a'\	.	.
8F#'\	2	8ff# 8dd 8a'\	.	.
8A'\	.	8ee 8cc# 8a 8g'\	.	.
8AA'\J	.	8eeJ 8cc# 8a 8g'\	.	.
=11	=11	=11	=11	=11
4D'\	2	4dd 4a 4f#'\	.	.
4r	.	4r	.	.
=:|!	=:|!	=:|!	=:|!	=:|!
*-	*-	*-	*-	*-
!!!system-decoration: {s1,s2}
!!!RDF**kern: < = below
!!!ENC: Marta Lawrence
!!!END: 2021-05-02
!!!ENC: Anastazja Marusiak
!!!END: 2021-04-18
!!!YEC: Copyright 2022 Narodowy Instytut Fryderyka Chopina (https://polishscores.org)
!!!YEM: License CC-BY-4.0 (https://creativecommons.org/licenses/by/4.0)
